!!!!SEGMENT: pl-kozmzk--mzk-m-159--039_walczynski-franciszek--praeludia-organi-op-5-allegro.krn
!!!cenid: 18xx:2782
!!!COM: Walczyński, Franciszek
!!!COM-rismid: pe30021989
!!!CDT: ~1852-1937
!!!CNT: Polish
!!!GTL: Praeludia organi op. 5
!!!OTL: 39. Allegro
!!!PDT: 1894
!!!AGN: Secular; Prelude
!!!SMS-siglum: PL-KOZmzk
!!!SMS-shelfmark: mzk/m/159
!!!SMS-shelfwork: 039 G
!!!SMS-variant:
!!!SMS-altvar:
!!!NIFC-rismid: 1001118841
!!!URL-scan: https://repozytorium.nifc.pl/islandora/object/pl-kozmzk%3A2265/datastream/PDF/view
!!!ONB-nifc: UWAGA: numeracja plików zgodna z numeracją źrodłową
!!!OMD:39. Allegro.
**kern	**kern	**dynam
*part2	*part1	*part1
*staff2	*staff1	*
*Iorgan	*Iempty	*
*I"[Organo]	*	*
*clefF4	*clefG2	*
*k[b-e-a-d-g-c-]	*k[b-e-a-d-g-c-]	*
*F#:	*F#:	*
*M3/4	*M3/4	*
=1	=1	=1
*^	*^	*
(2D-/	[2.GG-\	(8b-/L	8g-\L	pp
.	.	8cc-/	8a-\	.
.	.	8dd-/	8b-\	.
.	.	8b-/	8g-\	.
[4G-/	.	8cc-/	8a-\	.
.	.	8dd-/J	8b-\J	.
=2	=2	=2	=2	=2
8G-/L]	2.GG-\]	2.ee-/)	2.cc-\	.
8E-/	.	.	.	.
8G-/	.	.	.	.
8A-/J	.	.	.	.
4G-^/)	.	.	.	.
=3	=3	=3	=3	=3
(4.d-/	[2.GG-\	(8a-/L	8f\L	.
.	.	8b-/	8g-\	<
.	.	8cc-/	8a-\	.
8c-/L	.	8a-/	8f\	.
8B-/	.	8b-/	8g-\	.
8A-/J	.	8cc-/J	8a-\J	[
=4	=4	=4	=4	=4
8G-/L	2.GG-\]	2.dd-/)	2.b-\	>
8D-/	.	.	.	.
8G-/	.	.	.	.
8A-/J)	.	.	.	.
4G-^/	.	.	.	]
=5	=5	=5	=5	=5
(4F/	(4D-\	(4ee-/	4cc-\	fp
4G-/	4E-\	4dd-/	4b-\	.
4A-/	4F\	4cc-/	4a-\	.
=6	=6	=6	=6	=6
2B-/	4G-\	4b-/	4g-\	.
.	4Gn\	4dd-/	4f-X\	.
4c-/	4A-\	4cc-/	4e-\	.
!!LO:LB:g=original
=7	=7	=7	=7	=7
4d-/	4B-\	2b-/	4d-\	.
2e-/	4c-\	.	4g-\	.
.	4E-\	4a-/	8fn\L	.
.	.	.	8e-\J	.
=8	=8	=8	=8	=8
2.dn/)	2.BB-;\)	2.b-;/)	2.f\	.
=9	=9	=9	=9	=9
!LO:TX:b:i:t=Ped.	!	!	!	!
(2.e-/	(4C-\	(4ee-/	4g-\	f
.	4BB-\	4dd-/	4gn\	.
.	4AA-\	4cc-/	4a-\	.
=10	=10	=10	=10	=10
4d-X/	2D-\	2b-/	2.g-X\	.
4e-/	.	.	.	.
4cn/)	4E-\)	4a-/)	.	.
=11	=11	=11	=11	=11
*	*	*	*	*^
!	!	!	!	!LO:DY:a	!
(8c-X/L	2.D-\	2.a-/	2.f\	p	.
8B-/	.	.	.	.	.
8c-/	.	.	.	.	.
8e-/	.	.	.	.	.
!	!	!	!	!	!LO:HP:a
8d-/	.	.	.	.	>
[8c-/J)	.	.	.	.	.
=12	=12	=12	=12	=12	=12
(4c-/]	[2.GG-\	[2.g-/	[2.d-\	pp	.
!LO:TX:b:i:t=rit.	!	!	!	!	!
4B-/	.	.	.	.	.
4A-/	.	.	.	.	.
=13	=13	=13	=13	=13	=13
2.B-/)	2.GG-;\]	2.g-;/]	2.d-\]	.	]
*	*	*	*	*v	*v
*v	*v	*	*	*
*	*v	*v	*
==	==	==
*-	*-	*-
!!!system-decoration: {(s1,s2)}
!!!EED: Andrzej Borzym
!!!EST: 2021-08-08
!!!ENC: Krzysztof Stępień
!!!END: 2021-07-26
